public/images/flags/MHL.svg

<svg xmlns="http://www.w3.org/2000/svg" xml:space="preserve" fill-rule="evenodd" stroke-linejoin="round" stroke-miterlimit="2" clip-rule="evenodd" viewBox="0 0 640 480">
  <path fill="#003893" d="M0 0h639.9v480H0z"/>
  <path fill="#dd7500" d="M0 467 639.9 0v87L0 480v-13Z"/>
  <path fill="#fff" d="M22.4 480 640 179.2l-.1-95.5L0 480h22.4Zm153-464.8L169 118l-27-65.6 10.4 69.8-41.9-56.4 27.5 64.3-55-42.6 42.8 53.6-62.1-27.6 54.4 41.2-67.7-9 64 25.4L14 180.3l100.6 6.7-63.7 26.2 67-9-54.3 40 63-27.6-43 54 54.6-41.3-27 62.9 43.6-54.7-11.8 68.1 27.5-63.7 6.2 100.7 9.7-100.4 23.7 64-9-69 43.4 54.8-28.6-64 54.6 44-43.4-54.9 64.9 27-57.4-41.9 69.9 11.8-67-25.7 104.1-6.5-104-9.7 68.5-22.8-71 9 58.6-41-66 26.5 45.6-55.3-55.6 43.4 26.7-66.4-43.1 56.4 9.3-70.4-25.7 66.5-9.6-102.8h.1Z"/>
</svg>

<?xml version="1.0" encoding="UTF-8" standalone="no"?>
<!DOCTYPE svg PUBLIC "-//W3C//DTD SVG 1.1//EN" "http://www.w3.org/Graphics/SVG/1.1/DTD/svg11.dtd">
<svg width="100%" height="100%" viewBox="0 0 640 480" version="1.1" xmlns="http://www.w3.org/2000/svg" xmlns:xlink="http://www.w3.org/1999/xlink" xml:space="preserve" xmlns:serif="http://www.serif.com/" style="fill-rule:evenodd;clip-rule:evenodd;stroke-linejoin:round;stroke-miterlimit:2;">
    <g>
        <rect x="0" y="0" width="639.9" height="480" style="fill:rgb(0,56,147);"/>
        <path d="M0,467L639.9,0L639.9,87L0,480L0,467Z" style="fill:rgb(221,117,0);"/>
        <path d="M22.4,480L640,179.2L639.9,83.7L0,480L22.4,480ZM175.4,15.2L169,118L142,52.4L152.4,122.2L110.5,65.8L138,130.1L83,87.5L125.8,141.1L63.7,113.5L118.1,154.7L50.4,145.7L114.4,171.1L14,180.3L114.6,187L50.9,213.2L117.9,204.2L63.6,244.2L126.6,216.6L83.6,270.6L138.2,229.3L111.2,292.2L154.8,237.5L143,305.6L170.5,241.9L176.7,342.6L186.4,242.2L210.1,306.2L201.1,237.2L244.5,292L215.9,228L270.5,272L227.1,217.1L292,244.1L234.6,202.2L304.5,214L237.5,188.3L341.6,181.8L237.6,172.1L306.1,149.3L235.1,158.3L293.7,117.3L227.7,143.8L273.3,88.5L217.7,131.9L244.4,65.5L201.3,121.9L210.6,51.5L184.9,118L175.3,15.2L175.4,15.2Z" style="fill:white;"/>
    </g>
</svg>
